X:8884
T:La Condesita (Romance) (Arrg. Bm)
Z:DyC en Teverga
M:2/4
L:1/8
Q:1/4=60
K:Bm
|:"G"B B/ B/ "G"B B/ d/|"Bm"f f3|"Bm"f g/ f/ "Em"e d/ e/|"Em"(fe3)|
|"Em"e e/ e/ "A"e d/ c/|"G"(Bc) "G"d2|"Bm"f e/ d/ "A"e d/ c/|"G"c-B3:|
